X: 8727
T: Cruibins For Breakfast
R: reel
M: 4/4
K: Dmajor
|:(3BAG|DADE FE D2|Adcd BAFA|BE E2 DE E2|GFED BEGB|
DADE FE D2|Adcd BAFA|B2 e2 dBAG|FBAF D2:|
|:(3cde|fded cA A2|fdef geag|fded cABc|BFAF Dcde|
fded cA A2|fdef g2 fg|af (3gfe fdec|dBAF D2:|

